!!!OTL: 326. Ewiger Wechsel.
!!!COM: F. H. Himmel
!!!ODT: 1802
!!!ARE: Europa, Mitteleuropa, Deutschland
!!!SCT: B0326
!!!TXL: @@DE
!!!YEM: Copyright 1995, estate of Helmut Schaffrath.
**kern	**text
*ICvox	*
*Ivox	*
*clefG2	*
*M6/4	*
*k[f#]	*
*G:	*
!LO:TX:a:t=Fröhlich.	!
{4d	Es
=1	=1
4.b	kann
8b	ja
4b	nicht
4b	im-
4a	-mer
4b	ſo
=2	=2
(2dd	blei-
4cc)	.
2b}	-ben
{4b	hier
=3	=3
4a	un-
4dd	-ter
4a	dem
4g	wech-
4f#	-ſeln-
4e	-den
=4	=4
[2.d	Mond
4d]	,
4r}	.
{4d	es
=5	=5
4d	blüht
4e	ei-
4f#	-ne
4g	Ʒeit
4a	und
4b	ver-
=6	=6
2.cc	-ſchwin-
2a}	-det,
{4dd	was
=7	=7
4g	mit
4g	uns
4g	die
4a	Er-
4g	-de
4f#	be-
=8	=8
(2.dd	-wohnt
4ee	.
4cc)}	,
{4a	was
=9	=9
4g	mit
4g	uns
4g	die
(8bqq	.
4a)	Er-
4g	-de
4f#	be-
=10	=10
[2.g	-wohnt.
4g]	.
4r}	.
==	==
!!!AGN: Trink - Lied
!!!GTL: Wein- und Trinklieder
!!!ONB: ESAC (Essen Associative Code) Database: BOEHME
!!!AMT: compound duple
!!!AIN: vox
!!!EED: Helmut Schaffrath
!!!EEV: 1.0
!!@@COMMENT:"Gedicht von Kotʒebue 1892. Ʒuerſt geſungen in Freundeskreiſen ʒu Weimar am Geburtstage von Kotʒebues Frau, 
!!6. Mai 1802. Gedruckt mit dieſer Melodie im Februarheſt des Freimutbigen 1803, 
!!war aber als Einʒeldruck ſchon 1802 vorhanden. Kotʒebue hat es ſpäter an mehreren
!!Stellen geändert, noch mehr änderte das Volk, das gewöhnlich blos 1. 4. und 5. Strophe ſingt.
!!Jn der Demagogenʒeit war das Lied in Studentenkreiſen verpönt und darum in keinem burſchen-
!!ſchaftlichen Commersbuch jener Ʒeit; nur die Philiſter ſangen es fort" ſerʒählt Hoffmann). Die
!!noch bekannte, allʒeit dem Liede geeignete Melodie iſt von F. H. Himmel 1802 komponirt."
!!@@END:
!!!Text: A. von Kotzebue
!!!URL-scan: https://archive.org/details/BoehmeVtLieder1895/page/n273/mode/2up
!!!ENC: Anna Maria Matuszewska
!!!EEV: 2024/04/07
*-	*-
